src/icons/hds/ui/heart.svg

<svg xmlns="http://www.w3.org/2000/svg" width="24" height="24" viewBox="0 0 24 24">
  <g fill="none" fill-rule="evenodd">
    <rect width="24" height="24"/>
    <path fill="currentColor" d="M19.7315574,11.5420525 C18.5468306,12.748446 17.4495567,13.7333502 16.3877873,14.6859064 C14.899591,16.0213117 13.4921205,17.2844095 12.0001869,19 C10.5082532,17.2847901 9.1000353,16.0213117 7.61146523,14.6851452 C6.54969582,13.7329697 5.45242198,12.7480655 4.26844258,11.5420525 C3.45071943,10.7093746 3,9.59964481 3,8.41798808 C3,7.23633135 3.45071943,6.12660155 4.26844258,5.29392363 C5.08766065,4.45934289 6.17820734,4 7.33938916,4 C10.4122044,4 11.4377219,6.70962831 12.0013081,7.72459723 C12.5656417,6.70962831 13.5904117,4 16.6636007,4 C17.8229139,4 18.9123393,4.45934289 19.7315574,5.29392363 C20.5492806,6.12660155 21,7.23633135 21,8.41798808 C21,9.59964481 20.5492806,10.7093746 19.7315574,11.5420525 M16.8423439,2 C13.9323197,2 12.466248,3.80597104 12.0013582,4.51758227 C11.5368564,3.80597104 10.0711728,2 7.16076059,2 L7.15726809,2 C5.51191505,2 3.96473991,2.65415932 2.80135114,3.84202706 C1.63990263,5.02870614 1,6.60803931 1,8.28999346 C1,9.97194762 1.63990263,11.5512808 2.80135114,12.7379599 C4.06718643,14.0300335 5.22708271,15.0736771 6.34894961,16.0832458 C7.93027358,17.5060721 9.42389713,18.8500505 10.9896989,20.6948511 C11.1693684,20.9064326 11.8465243,21.7979278 11.8535093,21.8070408 L11.999806,22 L12.1461027,21.8070408 C12.1530877,21.7979278 12.8302436,20.9064326 13.009913,20.6948511 C14.5761029,18.8500505 16.0697264,17.5060721 17.6510504,16.0832458 C18.7729173,15.0736771 19.9328136,14.0300335 21.1982608,12.7375636 C22.3600974,11.5512808 23,9.97194762 23,8.28999346 C23,6.60803931 22.3600974,5.02870614 21.1982608,3.84242328 C20.0352601,2.65415932 18.4880849,2 16.8423439,2 Z"/>
  </g>
</svg>

<svg viewBox="0 0 24 24" role="img" xmlns="http://www.w3.org/2000/svg"><g fill="none" fill-rule="evenodd"><path d="M0 0h24v24H0z"/><path d="M19.732 11.542c-1.185 1.206-2.282 2.191-3.344 3.144C14.9 16.02 13.492 17.284 12 19c-1.492-1.715-2.9-2.979-4.389-4.315-1.061-.952-2.159-1.937-3.343-3.143A4.43 4.43 0 013 8.418a4.43 4.43 0 011.268-3.124A4.273 4.273 0 017.34 4c3.073 0 4.099 2.71 4.662 3.725C12.566 6.71 13.591 4 16.664 4c1.159 0 2.248.46 3.068 1.294A4.43 4.43 0 0121 8.418a4.43 4.43 0 01-1.268 3.124M16.842 2c-2.91 0-4.376 1.806-4.84 2.518C11.536 3.806 10.071 2 7.16 2h-.004a6.057 6.057 0 00-4.356 1.842A6.317 6.317 0 001 8.29c0 1.682.64 3.261 1.801 4.448 1.266 1.292 2.426 2.336 3.548 3.345 1.581 1.423 3.075 2.767 4.64 4.612.18.211.858 1.103.865 1.112L12 22l.146-.193c.007-.01.684-.9.864-1.112 1.566-1.845 3.06-3.189 4.641-4.612 1.122-1.01 2.282-2.053 3.547-3.345A6.314 6.314 0 0023 8.29c0-1.682-.64-3.261-1.802-4.448A6.054 6.054 0 0016.842 2z" fill="currentColor"/></g></svg>
